U-commodities/img/partners/biopharma.svg

<svg width="160" height="40" viewBox="0 0 160 40" fill="none" xmlns="http://www.w3.org/2000/svg">
<path fill-rule="evenodd" clip-rule="evenodd" d="M16.1475 9.88222C17.7086 11.4541 18.5866 13.5854 18.5889 15.8085C20.7973 15.8085 22.9152 16.6918 24.4768 18.2643C26.0383 19.8367 26.9156 21.9693 26.9156 24.1931C26.9156 26.4168 26.0383 28.5495 24.4768 30.1219C22.9152 31.6943 20.7973 32.5777 18.5889 32.5777H1.93555V7.42383H10.2622C12.4699 7.42618 14.5865 8.31031 16.1475 9.88222ZM10.2622 9.51777H4.01501L3.99739 18.6521C4.07488 18.5763 4.14902 18.5005 4.22207 18.4259C4.29439 18.3519 4.36563 18.2791 4.43796 18.2085C5.98858 16.6656 8.08227 15.8028 10.2622 15.8085H16.4962V15.4314C16.3987 13.8322 15.6998 12.3306 14.5417 11.232C13.3836 10.1334 11.8533 9.5204 10.2622 9.51777ZM13.8677 20.9404C14.9221 20.1892 15.7202 19.1281 16.1526 17.9024H10.2622C8.97022 17.9038 7.71033 18.308 6.65563 19.0595C5.60093 19.8109 4.80315 20.8728 4.37187 22.0991H10.2622C11.5539 22.0964 12.8132 21.6917 13.8677 20.9404ZM4.01501 30.4926H18.5889C20.2464 30.5091 21.8424 29.8619 23.026 28.6934C24.2095 27.5249 24.8836 25.9308 24.9 24.2618C24.9164 22.5929 24.2736 20.9857 23.1132 19.7939C21.9528 18.6021 20.3697 17.9233 18.7123 17.9068H18.3246C18.1477 18.5909 17.8857 19.2498 17.5448 19.8677C16.8242 21.1771 15.769 22.2686 14.4885 23.0292C13.2081 23.7897 11.7489 24.1916 10.2622 24.1931H4.01501V30.4926Z" fill="#64708B"/>
<path fill-rule="evenodd" clip-rule="evenodd" d="M51.7723 14.3577C49.9043 14.3577 48.1993 15.3559 46.8952 16.5049V10.5691H45.644V25.4574H46.5692L46.8159 23.4876C48.1376 24.6499 49.8646 25.6392 51.7723 25.6392C54.1954 25.6392 56.2792 23.7671 56.2792 20.0007C56.2792 16.2343 54.1954 14.3577 51.7723 14.3577ZM51.7723 24.4681C49.9395 24.4681 48.3226 23.359 46.8952 22.0237V17.8713C48.3226 16.598 49.9395 15.5333 51.7723 15.5333C53.5037 15.5333 55.006 16.9973 55.006 20.0007C55.006 23.0041 53.5037 24.4681 51.7723 24.4681Z" fill="#64708B"/>
<path d="M60.6805 10.5691H59.4337V12.6897H60.6805V10.5691Z" fill="#64708B"/>
<path d="M60.6805 14.5397H59.4337V25.4619H60.6805V14.5397Z" fill="#64708B"/>
<path fill-rule="evenodd" clip-rule="evenodd" d="M69.4081 14.3577C66.659 14.3577 63.8394 16.2299 63.8394 20.0007C63.8394 23.7716 66.659 25.6393 69.4081 25.6393C72.1572 25.6393 74.9768 23.7671 74.9768 20.0007C74.9768 16.2343 72.1572 14.3577 69.4081 14.3577ZM69.4081 24.4681C67.3022 24.4681 65.1302 22.9775 65.1302 20.0007C65.1302 17.024 67.3022 15.5334 69.4081 15.5334C71.514 15.5334 73.6816 17.0195 73.6816 20.0007C73.6816 22.9819 71.5096 24.4681 69.4081 24.4681Z" fill="#64708B"/>
<path fill-rule="evenodd" clip-rule="evenodd" d="M84.2948 14.3577C82.3916 14.3577 80.6601 15.3914 79.3473 16.5759L79.0917 14.5219H78.1533V29.4323H79.4045V23.5542C80.7262 24.6855 82.4136 25.6393 84.2816 25.6393C86.7091 25.6393 88.7886 23.7671 88.7886 20.0007C88.7886 16.2343 86.7223 14.3577 84.2948 14.3577ZM84.2948 24.4681C82.4665 24.4681 80.8452 23.359 79.4177 22.0237V17.8713C80.8452 16.5981 82.4665 15.5334 84.2948 15.5334C86.0262 15.5334 87.5285 16.9973 87.5285 20.0007C87.5285 23.0041 86.0262 24.4681 84.2948 24.4681Z" fill="#64708B"/>
<path d="M98.2872 14.3577C96.3883 14.3577 94.7626 15.316 93.4101 16.4871V10.5691H92.1633V25.4574H93.4101V17.8668C94.9168 16.5004 96.4941 15.5333 98.2872 15.5333C99.9305 15.5333 101.041 16.5004 101.041 18.4436V25.4574H102.287V18.4436C102.287 15.7108 100.671 14.3577 98.2872 14.3577Z" fill="#64708B"/>
<path d="M120.201 16.5716L119.945 14.522H119.025V25.4575H120.271V17.8847C121.404 16.6248 122.628 15.5335 124.179 15.5335C124.634 15.5295 125.084 15.6217 125.501 15.8041L125.985 14.6507C125.471 14.4786 124.933 14.3873 124.391 14.38C122.694 14.38 121.373 15.3294 120.201 16.5716Z" fill="#64708B"/>
<path d="M141.374 14.3577C139.678 14.3577 138.127 15.3914 136.969 16.6247C136.405 15.1119 135.088 14.3577 133.444 14.3577C131.801 14.3577 130.387 15.3382 129.25 16.496L128.986 14.5219H128.061V25.4574H129.312V17.9156C130.374 16.669 131.898 15.5511 133.427 15.5511C134.955 15.5511 136.013 16.4073 136.013 18.6565V25.4574H137.264V18.4436C137.264 18.2617 137.264 18.0931 137.242 17.9245C138.304 16.6646 139.841 15.5334 141.374 15.5334C142.908 15.5334 143.965 16.3896 143.965 18.6388V25.4574H145.212V18.4436C145.212 15.7108 143.595 14.3577 141.374 14.3577Z" fill="#64708B"/>
<path fill-rule="evenodd" clip-rule="evenodd" d="M110.98 14.3577C108.808 14.3577 107.398 15.0808 105.918 16.0036L106.539 16.9752C108.204 15.9371 109.151 15.4846 110.945 15.4846C112.588 15.4846 113.883 16.3452 113.883 18.7364V20.1294C112.64 19.2757 111.18 18.7999 109.676 18.7585C107.363 18.7585 105.305 20.0229 105.305 22.2544C105.305 24.4858 106.993 25.6393 109.143 25.6393C111.09 25.6393 112.667 24.6145 113.945 23.3812L114.205 25.4574H115.13V18.4436C115.117 15.7108 113.359 14.3577 110.98 14.3577ZM109.385 24.5124C107.834 24.5124 106.565 23.7671 106.565 22.2544C106.565 20.7416 107.768 19.8854 109.649 19.8854C111.167 19.9249 112.636 20.4346 113.857 21.3449V22.1656C112.517 23.4566 111.041 24.5124 109.385 24.5124Z" fill="#64708B"/>
<path fill-rule="evenodd" clip-rule="evenodd" d="M153.904 14.3577C151.732 14.3577 150.322 15.0808 148.842 16.0036L149.468 16.9752C151.129 15.9371 152.076 15.4846 153.873 15.4846C155.517 15.4846 156.812 16.3452 156.812 18.7364V20.1294C155.57 19.2765 154.111 18.8007 152.609 18.7585C150.296 18.7585 148.238 20.0229 148.238 22.2544C148.238 24.4858 149.926 25.6393 152.076 25.6393C154.023 25.6393 155.6 24.6145 156.878 23.3812L157.138 25.4574H158.063V18.4436C158.041 15.7108 156.283 14.3577 153.904 14.3577ZM152.309 24.5124C150.758 24.5124 149.49 23.7671 149.49 22.2544C149.49 20.7416 150.692 19.8854 152.574 19.8854C154.092 19.9241 155.561 20.4338 156.781 21.3449V22.1656C155.442 23.4566 153.966 24.5124 152.309 24.5124Z" fill="#64708B"/>
</svg>

<svg width="160" height="40" fill="none" xmlns="http://www.w3.org/2000/svg"><path fill-rule="evenodd" clip-rule="evenodd" d="M16.148 9.882a8.423 8.423 0 012.44 5.927 8.3 8.3 0 015.889 2.455 8.414 8.414 0 012.439 5.93 8.414 8.414 0 01-2.44 5.928 8.298 8.298 0 01-5.887 2.456H1.936V7.424h8.326a8.306 8.306 0 015.886 2.458zm-5.886-.364H4.015l-.018 9.134c.078-.076.152-.152.225-.226.072-.074.144-.147.216-.217a8.227 8.227 0 015.824-2.4h6.234v-.378a6.318 6.318 0 00-1.954-4.199 6.233 6.233 0 00-4.28-1.714zm3.606 11.422a6.304 6.304 0 002.285-3.038h-5.89a6.226 6.226 0 00-3.607 1.157 6.295 6.295 0 00-2.284 3.04h5.89a6.235 6.235 0 003.606-1.159zm-9.853 9.553h14.574a6.227 6.227 0 004.437-1.8 6.315 6.315 0 001.874-4.431 6.316 6.316 0 00-1.787-4.468 6.229 6.229 0 00-4.4-1.887h-.388a8.427 8.427 0 01-3.836 5.122 8.291 8.291 0 01-4.227 1.164H4.015v6.3zm47.757-16.135c-1.868 0-3.573.998-4.877 2.147v-5.936h-1.251v14.888h.925l.247-1.97c1.322 1.163 3.049 2.152 4.956 2.152 2.423 0 4.507-1.872 4.507-5.638 0-3.767-2.084-5.643-4.507-5.643zm0 10.11c-1.832 0-3.45-1.109-4.877-2.444V17.87c1.428-1.273 3.044-2.338 4.877-2.338 1.732 0 3.234 1.464 3.234 4.468 0 3.003-1.502 4.467-3.234 4.467z" fill="#64708B"/><path d="M60.68 10.57h-1.246v2.12h1.247v-2.12zm0 3.97h-1.246v10.922h1.247V14.54z" fill="#64708B"/><path fill-rule="evenodd" clip-rule="evenodd" d="M69.408 14.358c-2.749 0-5.569 1.872-5.569 5.643 0 3.77 2.82 5.638 5.57 5.638 2.748 0 5.568-1.872 5.568-5.638 0-3.767-2.82-5.643-5.569-5.643zm0 10.11c-2.106 0-4.278-1.49-4.278-4.467 0-2.977 2.172-4.468 4.278-4.468 2.106 0 4.274 1.487 4.274 4.468 0 2.98-2.172 4.467-4.274 4.467zm14.887-10.11c-1.903 0-3.635 1.033-4.948 2.218l-.255-2.054h-.939v14.91h1.251v-5.878c1.322 1.132 3.01 2.085 4.878 2.085 2.427 0 4.507-1.872 4.507-5.638 0-3.767-2.067-5.643-4.494-5.643zm0 10.11c-1.829 0-3.45-1.109-4.877-2.444V17.87c1.427-1.273 3.048-2.338 4.877-2.338 1.731 0 3.233 1.464 3.233 4.468 0 3.003-1.502 4.467-3.233 4.467z" fill="#64708B"/><path d="M98.287 14.358c-1.899 0-3.524.958-4.877 2.13v-5.919h-1.247v14.888h1.247v-7.59c1.507-1.367 3.084-2.334 4.877-2.334 1.643 0 2.754.967 2.754 2.91v7.014h1.246v-7.013c0-2.733-1.616-4.086-4-4.086zm21.914 2.214l-.256-2.05h-.92v10.935h1.246v-7.572c1.133-1.26 2.357-2.352 3.908-2.352a3.25 3.25 0 011.322.271l.484-1.153a5.244 5.244 0 00-1.594-.271c-1.697 0-3.018.95-4.19 2.192zm21.173-2.214c-1.696 0-3.247 1.033-4.405 2.267-.564-1.513-1.881-2.267-3.525-2.267-1.643 0-3.057.98-4.194 2.138l-.264-1.974h-.925v10.935h1.251v-7.541c1.062-1.247 2.586-2.365 4.115-2.365 1.528 0 2.586.856 2.586 3.106v6.8h1.251v-7.013c0-.182 0-.35-.022-.52 1.062-1.26 2.599-2.39 4.132-2.39 1.534 0 2.591.856 2.591 3.105v6.818h1.247v-7.013c0-2.733-1.617-4.086-3.838-4.086z" fill="#64708B"/><path fill-rule="evenodd" clip-rule="evenodd" d="M110.98 14.358c-2.172 0-3.582.723-5.062 1.646l.621.971c1.665-1.038 2.612-1.49 4.406-1.49 1.643 0 2.938.86 2.938 3.251v1.393a7.809 7.809 0 00-4.207-1.37c-2.313 0-4.371 1.264-4.371 3.495 0 2.232 1.688 3.385 3.838 3.385 1.947 0 3.524-1.024 4.802-2.258l.26 2.076h.925v-7.013c-.013-2.733-1.771-4.086-4.15-4.086zm-1.595 10.154c-1.551 0-2.82-.745-2.82-2.258 0-1.512 1.203-2.369 3.084-2.369a7.36 7.36 0 014.208 1.46v.82c-1.34 1.292-2.816 2.347-4.472 2.347zm44.519-10.154c-2.172 0-3.582.723-5.062 1.646l.626.971c1.661-1.038 2.608-1.49 4.405-1.49 1.644 0 2.939.86 2.939 3.251v1.393a7.812 7.812 0 00-4.203-1.37c-2.313 0-4.371 1.264-4.371 3.495 0 2.232 1.688 3.385 3.838 3.385 1.947 0 3.524-1.024 4.802-2.258l.26 2.076h.925v-7.013c-.022-2.733-1.78-4.086-4.159-4.086zm-1.595 10.154c-1.551 0-2.819-.745-2.819-2.258 0-1.512 1.202-2.369 3.084-2.369a7.343 7.343 0 014.207 1.46v.82c-1.339 1.292-2.815 2.347-4.472 2.347z" fill="#64708B"/></svg>
